packages/dnb-ui-lib/assets/icons/without_bankid.svg

<svg width="16" height="16" viewBox="0 0 16 16" fill="none" xmlns="http://www.w3.org/2000/svg">
<path fill-rule="evenodd" clip-rule="evenodd" d="M3.5 0.25C1.98122 0.25 0.75 1.48122 0.75 3V13C0.75 14.5188 1.98122 15.75 3.5 15.75H8C9.51878 15.75 10.75 14.5188 10.75 13V10C10.75 9.58579 10.4142 9.25 10 9.25C9.58579 9.25 9.25 9.58579 9.25 10V13C9.25 13.6904 8.69036 14.25 8 14.25H3.5C2.80964 14.25 2.25 13.6904 2.25 13V3C2.25 2.30964 2.80964 1.75 3.5 1.75H8C8.69036 1.75 9.25 2.30964 9.25 3V3.5C9.25 3.91421 9.58579 4.25 10 4.25C10.4142 4.25 10.75 3.91421 10.75 3.5V3C10.75 1.48122 9.51878 0.25 8 0.25H3.5ZM5.75 12.875C6.09482 12.875 6.375 12.5956 6.375 12.25C6.375 11.9044 6.09482 11.625 5.75 11.625C5.40518 11.625 5.125 11.9044 5.125 12.25C5.125 12.5956 5.40518 12.875 5.75 12.875ZM6 6.75C6 7.16421 5.66421 7.5 5.25 7.5C4.83579 7.5 4.5 7.16421 4.5 6.75C4.5 6.33579 4.83579 6 5.25 6C5.66421 6 6 6.33579 6 6.75ZM8.25 7.5C8.66421 7.5 9 7.16421 9 6.75C9 6.33579 8.66421 6 8.25 6C7.83579 6 7.5 6.33579 7.5 6.75C7.5 7.16421 7.83579 7.5 8.25 7.5ZM12 6.75C12 7.16421 11.6642 7.5 11.25 7.5C10.8358 7.5 10.5 7.16421 10.5 6.75C10.5 6.33579 10.8358 6 11.25 6C11.6642 6 12 6.33579 12 6.75ZM14.25 7.5C14.6642 7.5 15 7.16421 15 6.75C15 6.33579 14.6642 6 14.25 6C13.8358 6 13.5 6.33579 13.5 6.75C13.5 7.16421 13.8358 7.5 14.25 7.5Z" fill="#333333"/>
</svg>

<svg width="16" height="16" viewBox="0 0 16 16" fill="none" xmlns="http://www.w3.org/2000/svg"><path fill-rule="evenodd" clip-rule="evenodd" d="M3.5.25A2.75 2.75 0 00.75 3v10a2.75 2.75 0 002.75 2.75H8A2.75 2.75 0 0010.75 13v-3a.75.75 0 00-1.5 0v3c0 .69-.56 1.25-1.25 1.25H3.5c-.69 0-1.25-.56-1.25-1.25V3c0-.69.56-1.25 1.25-1.25H8c.69 0 1.25.56 1.25 1.25v.5a.75.75 0 001.5 0V3A2.75 2.75 0 008 .25H3.5zm2.25 12.625a.625.625 0 100-1.25.625.625 0 000 1.25zM6 6.75a.75.75 0 11-1.5 0 .75.75 0 011.5 0zm2.25.75a.75.75 0 100-1.5.75.75 0 000 1.5zM12 6.75a.75.75 0 11-1.5 0 .75.75 0 011.5 0zm2.25.75a.75.75 0 100-1.5.75.75 0 000 1.5z" fill="#333"/></svg>
